X:10
T:Paddy Whack
M:6/8
L:1/8
K:G
%%MIDI channel 1
%%MIDI program 72
%%MIDI transpose 8
%%MIDI grace 1/8
%%MIDI ratio 3 1
D|(GB)d gfg|(ed)c BAG|(GB)d gfg|fdd def|geg fdB|cec dBG|GBd cAc|BGG G2::
z|BBB ccc|gdG TA2G|Bcd efg|fdd d2e/f/|geg fdB|cec dBG|GBd cAc|BGG G2:|
